src/pos-icons/zodiac-gemini.svg

<svg height="24" viewBox="0 0 24 24" width="24" xmlns="http://www.w3.org/2000/svg"><path d="m18 5.3c1.35-.33 2.66-.76 3.94-1.3l-.76-1.86c-2.91 1.22-6.03 1.86-9.18 1.86s-6.27-.62-9.18-1.83l-.76 1.83c1.28.54 2.59.97 3.94 1.3v13.4c-1.35.33-2.66.76-3.94 1.3l.76 1.86c5.88-2.44 12.48-2.44 18.36 0l.76-1.86c-1.28-.54-2.59-.97-3.94-1.3zm-10 13v-12.61c1.32.2 2.66.31 4 .31s2.68-.11 4-.31v12.62c-2.65-.41-5.35-.41-8 0z"/></svg>

<?xml version="1.0" encoding="UTF-8"?><!DOCTYPE svg PUBLIC "-//W3C//DTD SVG 1.1//EN" "http://www.w3.org/Graphics/SVG/1.1/DTD/svg11.dtd"><svg xmlns="http://www.w3.org/2000/svg" xmlns:xlink="http://www.w3.org/1999/xlink" version="1.1" id="mdi-zodiac-gemini" width="24" height="24" viewBox="0 0 24 24"><path d="M18,5.3C19.35,4.97 20.66,4.54 21.94,4L21.18,2.14C18.27,3.36 15.15,4 12,4C8.85,4 5.73,3.38 2.82,2.17L2.06,4C3.34,4.54 4.65,4.97 6,5.3V18.7C4.65,19.03 3.34,19.46 2.06,20L2.82,21.86C8.7,19.42 15.3,19.42 21.18,21.86L21.94,20C20.66,19.46 19.35,19.03 18,18.7V5.3M8,18.3V5.69C9.32,5.89 10.66,6 12,6C13.34,6 14.68,5.89 16,5.69V18.31C13.35,17.9 10.65,17.9 8,18.31V18.3Z" /></svg>
